X:9337
T:Last Night's Fun
R:reel
D:Noel Hill: The Irish Concertina
D:Mary Bergin: Feadoga Stain
D:Dervish: Playing with Fire
Z:id:hn-reel-379
M:C|
K:D
ADFD ~A3B|ADFD EFGB|ADFD A2 (3Bcd|1 e2fe dBBd:|2 e2fe dBAB||
df~f2 af~f2|defd ~e3f|1 df~f2 af~f2|egfe dBAB:|2 ~a3b afeg|fedc BcdB||
"Variations:"
|:ADFD A2dB|ADFD EDB,B|ADFD A2Bd|1 edfe dBBd:|2 edfe dBAB||
d2fd adfe|defd edfe|d2fd adfd|egfe dBAB|
~d3f adfe|defd e2ef|a2bf afeg|fded BddB||


